src/actions/16/kt-set-max-upload-speed.svg

<svg xmlns="http://www.w3.org/2000/svg" viewBox="0 0 16 16">
    <path d="M2 2v2h1V3h10v1h1V2H2zm6 2L3 9.168l.805.832L8 5.662 12.195 10 13 9.168 8 4zm-2 6v4h4v-4H9v3H7v-3H6z" style="fill:currentColor;fill-opacity:1;stroke:none;color:#050505;opacity:.7"/>
</svg>

<svg xmlns="http://www.w3.org/2000/svg" viewBox="0 0 16 16">
  <defs id="defs3051">
    <style type="text/css" id="current-color-scheme">
      .ColorScheme-Text {
        color:#363636;
      }
      </style>
  </defs>
 <path style="fill:currentColor;fill-opacity:1;stroke:none" 
     d="M 2 2 L 2 4 L 3 4 L 3 3 L 13 3 L 13 4 L 14 4 L 14 2 L 2 2 z M 8 4 L 3 9.1679688 L 3.8046875 10 L 8 5.6621094 L 12.195312 10 L 13 9.1679688 L 8 4 z M 6 10 L 6 14 L 7 14 L 10 14 L 10 10 L 9 10 L 9 13 L 7 13 L 7 10 L 6 10 z "
     class="ColorScheme-Text"
     />
</svg>
